X: 23144
T: Le 24 Juin
R: reel
M: 4/4
K: Gminor
B2dB A2BA|GABG D2B,A,|G,B,DG B2cB|ABcA F4|c2ec B2dB|ABcA FGFE|
DEFG ABcd|ed^ce d2DG|B2dB A2BA|GABG D2B,A,|
G,B,DG B2cB|ABcA F4|c2ec B2dB|ABcA FGFE|D2fe dcBA|GGBD g4:|
DGGA B2Bd|d^cde d=cBA|DGGA B2Bd|d^cde d2d2|dccd c2c2|cBBc B2B2|
BBAA BBAA|ddcc BBAA|DGGA B2Bd|d^cde d=cBA|DGGA B2Bd|
d^cde d2d2|dccd c2c2|cBBc B2B2|BBAA dcBA|GGBd g4:|
B6 A2|G6 D2|B4 A2G2|G2 F4 D2|c6 A2|F6 E2|D4 fedf|ed^ce d2D2|
B6 d2|G6 D2|B4 A2G2|G2 F4 D2|c6 A2|F3G FGFE|D2fe dcBA|GGBd g4:|
DGGA B2Bd|d^cde d=cBA|DGGA B2Bd|d^cde d2d2|dccd c2c2|cBBc B2B2|
BBAA BBAA|ddcc BBAA|DGGA B2Bd|d^cde d=cBA|DGGA B2Bd|
d^cde d2d2|dccd c2c2|cBBc B2B2|BBAA dcBA|GGBd g4:|

